X: 9314
T: Dancin' David
R: polka
M: 2/4
K: Dmajor
d>c|:dA DF|EF Ee/f/|ge Ac|Bc AB/c/|
dA DF|EF Ee/f/|ge ce|1 d2 d(3A/B/c/:|2 d2 d(3e/f/g/||
|:af ~ge|fa ge|fd ed|cA Af/g/|
af ~ge|fd cA|~BA Bc|1 d2 d(3e/f/g/:|2 d2 d(3A/B/c/||

